X:54
T:O'Flaherty's Hornpipe
S:Caitlín Nic Gabhann
R:hornpipe
M:4/4
L:1/8
K:D
(3ABA FD A,DFA | dced B2dB | (3ABA FD A,DFA | BAGF EA,CE |
(3ABA FD A,DFA | dced B2dB | AdcB AGFE |1 (3DED CE D2dB :|2 (3DED CE DEFA |:
B2Bd dcdf | bagf edcB | cEEF GABd | (3efe (3dcB A2dB |
(3ABA FD A,DFA | dced B2dB | AdcB AGFE |1 (3DED CE DEFA :|2 (3DED CE D2dB |]
